frontend/public/svg/hand gestures/thumbs-down.svg

<svg width="160" height="144" viewBox="0 0 160 144" fill="none" xmlns="http://www.w3.org/2000/svg">
<g clip-path="url(#clip0)">
<path d="M155.414 14.2867C154.113 6.44016 150.376 3.34423 142.083 3.24447L139.64 3.2123C134.36 3.14207 128.9 3.06854 123.537 3.29891C117.292 3.5667 110.835 3.84371 104.7 6.61345C104.275 6.37717 103.854 6.13103 103.431 5.88425C102.366 5.23009 101.258 4.64771 100.115 4.14101L99.1884 3.74722C97.1459 2.78611 94.9977 2.06966 92.7872 1.6128C89.1117 0.984876 85.3843 0.712987 81.6563 0.800911C71.6911 1.11923 59.9013 1.55567 48.0097 2.37609C41.2778 2.79754 34.5807 3.65921 27.9613 4.95554C23.2005 5.92336 18.5911 7.52596 14.2569 9.7205C11.7699 10.9721 9.60486 12.7801 7.92989 15.004C6.25487 17.228 5.11509 19.8081 4.59897 22.5441C4.06949 25.319 4.18666 28.1787 4.94156 30.901C5.69648 33.6233 7.06871 36.1351 8.95168 38.2411C9.01212 38.3118 9.06266 38.3904 9.10198 38.4747C8.4568 39.2623 7.78937 40.0217 7.14421 40.7601C5.61911 42.3977 4.24347 44.1683 3.0336 46.0508C-0.510622 51.9579 1.12164 58.4825 7.09694 62.2925C7.86091 62.7795 8.66886 63.2114 9.52538 63.6709C9.82927 63.833 10.1417 63.999 10.4653 64.1756C7.43173 67.7605 5.97593 71.455 6.01597 75.4594C6.05732 79.6035 8.2574 82.7677 12.7363 85.12C10.1488 87.7106 8.58675 91.1504 8.33879 94.8036C8.05394 98.7036 9.5202 101.564 12.7021 103.3C14.7856 104.449 16.9882 105.368 19.2708 106.04C26.2256 107.997 33.4007 109.064 40.624 109.215C46.2206 109.385 51.9129 109.407 57.4183 109.429C60.1283 109.44 62.8385 109.45 65.5479 109.478C65.8317 109.497 66.1125 109.548 66.3853 109.628C66.4969 109.656 66.6176 109.685 66.7496 109.716C66.6649 109.97 66.5855 110.218 66.508 110.461C66.3044 111.164 66.0483 111.851 65.7421 112.516C65.3772 113.254 64.9545 113.986 64.5436 114.695C63.985 115.623 63.4761 116.58 63.019 117.561C62.5595 118.591 62.0929 119.618 61.6236 120.646C59.9724 124.078 58.5318 127.607 57.3101 131.213C56.9493 132.387 56.8294 133.623 56.9575 134.844C57.0856 136.066 57.4592 137.25 58.0557 138.323C58.6218 139.369 59.3932 140.29 60.3238 141.031C61.2543 141.771 62.3249 142.316 63.4712 142.633C65.4765 143.181 67.5444 143.468 69.623 143.486C73.8971 143.557 78.0274 141.946 81.1247 138.999C83.1744 137.084 85.1887 135.066 87.1367 133.115C88.7776 131.474 90.4749 129.772 92.1827 128.144C97.776 122.812 103.524 116.954 107.016 109.136C107.72 109.235 108.397 109.333 109.055 109.427C110.672 109.661 112.2 109.882 113.72 110.06C114.603 110.164 115.502 110.2 116.372 110.234C116.728 110.249 117.084 110.262 117.44 110.281C125.128 110.685 133.389 110.913 141.716 109.855C145.908 109.41 149.946 108.027 153.53 105.808C156.766 103.748 158.539 100.886 158.802 97.3108C159.119 92.9888 159.31 89.0246 159.386 85.1922C159.687 69.8667 159.234 53.7844 158.002 36.0252C157.517 29.0319 156.646 21.7171 155.414 14.2867ZM110.248 99.2063C110.404 97.7145 110.55 96.306 110.563 94.8673C110.584 92.4605 110.613 90.0557 110.647 87.6515C110.743 80.3005 110.844 72.7054 110.629 65.2382C110.309 54.0562 109.724 42.6962 109.159 31.7111C109.018 28.9886 108.879 26.2666 108.742 23.545C108.63 21.3135 108.329 19.0655 108.038 16.8897C107.961 16.3135 107.885 15.7371 107.81 15.1609C107.543 13.0704 107.664 12.6209 109.661 12.1582C112.038 11.5679 114.463 11.1885 116.907 11.0246C124.068 10.6728 131.161 10.4897 137.76 10.344C139.537 10.3457 141.312 10.4892 143.067 10.7733C146.325 11.2288 147.206 12.086 147.783 15.3716C148.177 17.6814 148.454 20.0095 148.613 22.3472C148.78 24.6129 148.963 26.8759 149.146 29.1449C149.639 35.2738 150.15 41.6107 150.327 47.8505C150.714 61.4078 150.816 75.2021 150.918 88.5435L150.943 91.9453C150.99 98.168 150.09 99.2864 144.067 100.494C140.446 101.157 136.78 101.541 133.1 101.642C129.33 101.798 125.479 101.677 121.756 101.558L121.005 101.535C118.477 101.456 115.978 101.304 113.331 101.141C112.263 101.076 111.181 101.01 110.078 100.949C110.128 100.359 110.189 99.7793 110.248 99.2063ZM102.357 93.3354C102.638 100.905 100.031 107.89 94.386 114.691C89.936 120.053 84.94 125.123 80.1087 130.027C78.7172 131.439 77.3291 132.854 75.9449 134.272C73.0458 137.254 69.2174 137.22 65.8543 136.795C64.3736 136.608 63.5998 135.609 63.7304 134.055C63.8094 132.973 64.06 131.91 64.4733 130.907C65.1776 129.275 65.9343 127.63 66.6669 126.039C67.6409 123.922 68.6484 121.733 69.5475 119.542C71.1326 115.827 72.5116 112.027 73.6772 108.159C74.2023 106.328 74.1367 104.987 73.4803 104.059C72.7958 103.087 71.508 102.571 69.4294 102.436C68.0695 102.348 66.7214 102.305 65.3936 102.305C63.8899 102.305 62.4111 102.361 60.9718 102.475C49.4569 103.337 37.8811 102.863 26.4754 101.062C23.2959 100.496 20.1817 99.6093 17.1809 98.4154C14.6396 97.4651 14.167 96.4464 14.8837 93.4778C15.4967 90.9325 17.0924 89.1112 20.0577 87.5708C20.2946 87.4664 20.5428 87.389 20.7973 87.341C21.2665 87.299 21.7033 87.0844 22.0234 86.7385C22.8464 85.6812 23.4031 84.4407 23.6459 83.1228C23.7772 81.795 22.8584 80.6943 21.1834 80.1751C20.8683 80.078 20.5517 79.9822 20.2336 79.8877C18.743 79.4939 17.2946 78.955 15.9096 78.2777C13.6505 77.0694 13.2357 75.9615 14.0626 73.34C15.0682 70.1483 17.2918 67.7874 21.0592 65.9089C23.7633 64.5615 25.1101 63.4149 24.4827 61.2221C23.9169 59.2458 22.2412 58.7857 19.1453 58.5921C16.6205 58.4999 14.1243 58.0253 11.742 57.1843C9.75851 56.4 8.42405 55.166 7.88454 53.6158C7.33912 52.0517 7.622 50.235 8.70496 48.3651C9.80688 46.4797 11.2542 44.8188 12.9712 43.4695C13.7023 42.9004 14.8312 42.7324 15.9247 42.5709C16.3625 42.5053 16.7983 42.4397 17.2125 42.3524C17.4189 42.3274 17.628 42.3396 17.83 42.3884C18.0492 42.4314 18.2723 42.4509 18.4956 42.4468C19.868 42.3733 21.5765 42.2821 22.1278 40.4778C22.6529 38.7575 21.4538 37.5631 20.3498 36.7144C19.565 36.1454 18.7355 35.6405 17.8695 35.2048L17.4224 34.9633C13.1457 32.6353 11.3841 29.9673 11.7123 26.3115C12.1501 21.4185 14.3948 17.9937 18.384 16.1323C23.6525 13.6622 29.2962 12.0884 35.0826 11.4755C43.9235 10.5481 53.1706 9.80319 62.568 9.26237C69.8239 8.8456 77.2254 8.76756 84.3821 8.69274L85.0995 8.68479C87.5502 8.70442 89.9951 8.92856 92.4085 9.35498C96.8755 10.0533 98.9777 12.1063 99.6643 16.4401C100.187 20.0881 100.471 23.7665 100.513 27.4515C100.609 31.1408 100.587 34.8977 100.566 38.5305C100.558 40.0099 100.551 41.4895 100.548 42.9693L100.279 43.0028L100.8 49.8569C101.355 57.1746 101.907 64.4928 102.456 71.8114C102.529 72.7914 102.518 73.8015 102.508 74.8109C102.487 76.7648 102.442 78.7187 102.395 80.6727C102.299 84.8181 102.199 89.1145 102.357 93.3354Z" fill="black"/>
<path d="M125.008 95.0541C126.429 95.6035 127.94 95.889 129.464 95.8975C131.617 95.9133 133.723 95.2727 135.502 94.0598C138.587 91.9404 140.366 88.3096 140.383 84.0998C140.395 81.0347 139.586 78.666 137.978 77.0606C136.37 75.4552 133.992 74.6381 130.904 74.6276H130.863C127.876 74.6709 124.979 75.6547 122.583 77.4393C120.983 78.5229 119.72 80.0345 118.94 81.8026C118.16 83.5702 117.892 85.5221 118.17 87.434C118.611 90.9336 120.911 93.4986 125.008 95.0541ZM124.565 85.6435C124.69 83.2059 127.121 80.2964 129.051 80.276H129.125C130.591 80.2228 132.019 80.7499 133.099 81.7416C133.427 82.058 133.685 82.438 133.859 82.8587C134.034 83.2788 134.12 83.731 134.112 84.1858C134.102 84.9222 133.946 85.6494 133.653 86.3255C133.36 87.0015 132.936 87.6126 132.405 88.1238C131.956 88.561 131.422 88.9036 130.837 89.1293C130.252 89.3558 129.627 89.4615 129 89.4405C127.654 89.4162 126.373 88.8583 125.438 87.8895C125.148 87.5935 124.922 87.2417 124.772 86.8558C124.622 86.4699 124.551 86.0577 124.565 85.6435Z" fill="black"/>
</g>
<defs>
<clipPath id="clip0">
<rect width="158.834" height="143.082" fill="white" transform="translate(0.676758 0.509277)"/>
</clipPath>
</defs>
</svg>

<svg xmlns="http://www.w3.org/2000/svg" width="160" height="144" fill="none" viewBox="0 0 160 144"><g fill="#000" clip-path="url(#a)"><path d="M155.414 14.287c-1.301-7.847-5.038-10.943-13.331-11.043l-2.443-.032c-5.28-.07-10.74-.143-16.103.087-6.245.268-12.702.545-18.837 3.314-.425-.236-.846-.482-1.269-.729a28 28 0 0 0-3.316-1.743l-.927-.394a28.7 28.7 0 0 0-6.4-2.134A58 58 0 0 0 81.655.8c-9.965.318-21.755.755-33.646 1.575a155 155 0 0 0-20.049 2.58c-4.76.967-9.37 2.57-13.704 4.764a18.12 18.12 0 0 0-9.658 12.824A18.38 18.38 0 0 0 8.951 38.24q.09.106.15.234c-.645.787-1.313 1.547-1.958 2.285a37.6 37.6 0 0 0-4.11 5.29c-3.545 5.908-1.912 12.433 4.063 16.243.764.486 1.572.918 2.428 1.378q.456.241.94.505c-3.033 3.584-4.49 7.279-4.449 11.283.041 4.144 2.241 7.309 6.72 9.661a15.16 15.16 0 0 0-4.397 9.684c-.285 3.9 1.181 6.76 4.363 8.496a32.8 32.8 0 0 0 6.569 2.74 85.4 85.4 0 0 0 21.353 3.175c5.597.17 11.289.192 16.794.214 2.71.011 5.42.021 8.13.049q.427.03.837.15l.365.088q-.127.38-.242.745-.306 1.056-.766 2.055c-.365.738-.788 1.47-1.198 2.179a31 31 0 0 0-1.525 2.866q-.69 1.544-1.395 3.085a94 94 0 0 0-4.314 10.567 9.12 9.12 0 0 0 .746 7.11 8.84 8.84 0 0 0 5.415 4.31 24 24 0 0 0 6.152.853 16.3 16.3 0 0 0 11.502-4.487c2.05-1.915 4.064-3.933 6.012-5.884 1.64-1.641 3.338-3.343 5.046-4.971 5.593-5.332 11.341-11.19 14.833-19.008l2.039.291c1.617.234 3.145.455 4.665.633.883.104 1.782.14 2.652.174q.534.02 1.068.047c7.688.404 15.949.632 24.276-.426a28.1 28.1 0 0 0 11.814-4.047c3.236-2.06 5.009-4.922 5.272-8.497.317-4.322.508-8.286.584-12.119.301-15.325-.152-31.408-1.384-49.167-.485-6.993-1.356-14.308-2.588-21.738m-45.166 84.92c.156-1.492.302-2.901.315-4.34q.032-3.61.084-7.216c.096-7.35.197-14.946-.018-22.413-.32-11.182-.905-22.542-1.47-33.527q-.212-4.083-.417-8.166c-.112-2.232-.413-4.48-.704-6.655q-.116-.864-.228-1.73c-.267-2.09-.146-2.54 1.851-3.002a41.6 41.6 0 0 1 7.246-1.133c7.161-.352 14.254-.535 20.853-.681 1.777.002 3.552.145 5.307.43 3.258.455 4.139 1.312 4.716 4.598q.591 3.466.83 6.975c.167 2.266.35 4.529.533 6.798.493 6.129 1.004 12.466 1.181 18.705.387 13.558.489 27.352.591 40.693l.025 3.402c.047 6.223-.853 7.341-6.876 8.549a72 72 0 0 1-10.967 1.148c-3.77.156-7.621.035-11.344-.084l-.751-.023c-2.528-.079-5.027-.231-7.674-.394q-1.6-.099-3.253-.192c.05-.59.111-1.17.17-1.743m-7.891-5.872c.281 7.57-2.326 14.555-7.971 21.356-4.45 5.362-9.446 10.432-14.277 15.336a1252 1252 0 0 0-4.164 4.245c-2.9 2.982-6.728 2.948-10.09 2.523-1.481-.187-2.255-1.186-2.125-2.74.08-1.082.33-2.145.743-3.148a223 223 0 0 1 2.194-4.868c.974-2.117 1.981-4.306 2.88-6.497a110 110 0 0 0 4.13-11.383c.525-1.831.46-3.172-.197-4.1-.684-.972-1.972-1.488-4.05-1.623a63 63 0 0 0-4.036-.131 56 56 0 0 0-4.422.17 149.6 149.6 0 0 1-34.497-1.413 48 48 0 0 1-9.294-2.647c-2.541-.95-3.014-1.969-2.297-4.937.613-2.545 2.208-4.367 5.174-5.907q.357-.158.74-.23a1.9 1.9 0 0 0 1.225-.602 8.35 8.35 0 0 0 1.623-3.616c.131-1.328-.788-2.429-2.463-2.948a98 98 0 0 0-.95-.287 23.5 23.5 0 0 1-4.323-1.61c-2.26-1.209-2.674-2.317-1.847-4.938 1.005-3.192 3.229-5.553 6.996-7.431 2.704-1.348 4.051-2.494 3.424-4.687-.566-1.976-2.242-2.436-5.338-2.63a25 25 0 0 1-7.403-1.408c-1.983-.784-3.318-2.018-3.857-3.568-.546-1.564-.263-3.381.82-5.25a17.4 17.4 0 0 1 4.266-4.897c.731-.569 1.86-.737 2.954-.898.438-.066.873-.131 1.287-.219a1.8 1.8 0 0 1 .618.036q.33.065.666.059c1.372-.074 3.08-.165 3.632-1.97.525-1.72-.674-2.914-1.778-3.763a18 18 0 0 0-2.48-1.51l-.448-.24c-4.276-2.329-6.038-4.997-5.71-8.652.438-4.893 2.683-8.318 6.672-10.18a52.3 52.3 0 0 1 16.699-4.657A589 589 0 0 1 62.567 9.26c7.256-.416 14.657-.494 21.814-.57l.718-.007c2.45.02 4.895.244 7.309.67 4.466.698 6.569 2.751 7.255 7.085a84 84 0 0 1 .849 11.011c.096 3.69.074 7.447.053 11.08q-.013 2.219-.018 4.438l-.269.034.521 6.854q.832 10.977 1.656 21.954c.073.98.062 1.99.052 3a441 441 0 0 1-.113 5.862c-.096 4.145-.196 8.442-.038 12.662"/><path d="M125.008 95.054a12.5 12.5 0 0 0 4.456.843 10.6 10.6 0 0 0 6.038-1.837c3.085-2.12 4.864-5.75 4.881-9.96.012-3.065-.797-5.434-2.405-7.04s-3.986-2.422-7.074-2.432h-.041a14.2 14.2 0 0 0-8.28 2.811 10.28 10.28 0 0 0-4.413 9.995c.441 3.5 2.741 6.065 6.838 7.62m-.443-9.41c.125-2.438 2.556-5.348 4.486-5.368h.074a5.58 5.58 0 0 1 3.974 1.466 3.3 3.3 0 0 1 .76 1.117 3.3 3.3 0 0 1 .253 1.327 5.57 5.57 0 0 1-1.707 3.938A4.65 4.65 0 0 1 129 89.44a5.08 5.08 0 0 1-3.562-1.552 3.06 3.06 0 0 1-.873-2.245"/></g><defs><clipPath id="a"><path fill="#fff" d="M.677.51H159.51v143.08H.677z"/></clipPath></defs></svg>
